X:148
M:4/4
L:1/4
K:C
"^Refrain" G2 c3/2 G/ | F3 G | E3/2 F/ G A | D3 !sintro!D | E G c2- | c A G2- | G A F/E/ D | C4 !eintro!|] "^Verse" G2 ^F3/2 E/ | ^F2 D2 | E3/2 ^F/ G A | B2 G2 | c2 (B A) | d2 D2 | E3/2 G/ G ^F | "^To Refrain" G4{=F4 D4 E4} ||
